theme/icons/ghost_small.svg

<svg height="32" viewBox="0 0 32 32" width="32" xmlns="http://www.w3.org/2000/svg"><path d="m4.859 7.401v2.115h13.256v-4.231h-13.256v2.115zm18.051 0v2.115h4.231v-4.231h-4.231v2.115zm-18.051 9.026v2.115h22.282v-4.231h-22.282v2.115zm0 8.884v1.974h8.744v-3.949h-8.744zm13.539 0v1.974h8.744v-3.949h-8.744z" fill="#f4f4f7"/></svg>

<svg height="32" width="32" xmlns="http://www.w3.org/2000/svg">
    <path d="M4.859 7.401v2.115h13.256V5.285H4.859V7.4zm18.051 0v2.115h4.231V5.285H22.91V7.4zM4.859 16.427v2.115h22.282v-4.231H4.859v2.115zm0 8.884v1.974h8.744v-3.949H4.859zm13.539 0v1.974h8.744v-3.949h-8.744z" fill="#f4f4f7"/>
</svg>
